X:1
T:Hemel en aarde zullen vergaan
T:André Vierendeels
T:Canon ad voces aequales  (S or T)
T:Ancient melody
T:Hemel en aarde zullen vergaan
T:©
T:©
C:André Vierendeels
Z:©
%%score [ 1 2 3 ]
L:1/8
Q:1/4=120
M:3/4
K:F
V:1 treble nm="Soprano 1" snm="S 1"
V:2 treble nm="Soprano 2" snm="S 2"
V:3 treble nm="Soprano 3" snm="S 3"
V:1
 A2 A2 A2 | G3 A B2 | C2 D2 E2 | F6 | c2 c2 c2 | B3 c d2 | B2 B2 B2 | A3 B c2 | A2 A2 A2 | %9
w: He- mel en|aar- * de|zul- len ver-|gaan,|vro- lij- ke|mu- si- ci,|vro- lij- ke|mu- si- ci,|vro- lij- ke|
 G3 A B2 | C2 D2 E2 | F6 | A2 A2 A2 | G3 A B2 | C2 D2 E2 | F6 | c2 c2 c2 | B3 c d2 | B2 B2 B2 | %19
w: mu- si- ci|blij- ven be-|staan.|He- mel en|aar- * de|zul- len ver-|gaan,|vro- lij- ke|mu- si- ci,|vro- lij- ke|
 A3 B c2 | A2 A2 A2 | G3 A B2 | C2 D2 E2 | !fermata!F6 |] %24
w: mu- si- ci|vro- lij- ke|mu- si- ci,|blij- ven be-|staan.|
V:2
 z6 | z6 | z6 | z6 | A2 A2 A2 | G3 A B2 | C2 D2 E2 | F6 | c2 c2 c2 | B3 c d2 | B2 B2 B2 | A3 B c2 | %12
w: ||||He- mel en|aar- * de|zul- len ver-|gaan,|vro- lij- ke|mu- si- ci,|vro- lij- ke|mu- si- ci,|
 A2 A2 A2 | G3 A B2 | C2 D2 E2 | F6 | A2 A2 A2 | G3 A B2 | C2 D2 E2 | F6 | c2 c2 c2 | B3 c d2 | %22
w: vro- lij- ke|mu- si- ci|blij- ven be-|staan.|He- mel en|aar- * de|zul- len ver-|gaan,|vro- lij- ke|mu- si- ci,|
 B2 B2 B2 | !fermata!A6 |] %24
w: blij- ven be-||
V:3
 z6 | z6 | z6 | z6 | z6 | z6 | z6 | z6 | A2 A2 A2 | G3 A B2 | C2 D2 E2 | F6 | c2 c2 c2 | B3 c d2 | %14
w: ||||||||He- mel en|aar- * de|zul- len ver-|gaan,|vro- lij- ke|mu- si- ci,|
 B2 B2 B2 | A3 B c2 | A2 A2 A2 | G3 A B2 | C2 D2 E2 | F6 | A2 A2 A2 | G3 A B2 | C2 D2 E2 | %23
w: vro- lij- ke|mu- si- ci,|vro- lij- ke|mu- si- ci|blij- ven be-|staan.|He- mel en|aar- * de|zul- len ver-|
 !fermata!F6 |] %24
w: gaan.|

